icons/1_Primary/StartMail.svg

<svg xmlns="http://www.w3.org/2000/svg" viewBox="0 0 1024 1024">
   <circle cx="512" cy="512" r="512" style="fill:#6573ff"/>
   <path d="M724 374.9v-34.7c0-22.2-18-40.2-40.2-40.2H340.2c-22.2 0-40.2 18-40.2 40.2V374c15.7 15.3 162.3 154 212.7 154 53.6 0 194.7-136.9 211.3-153.1zm-75.4 126.2c-57.8 52.2-103.6 78.6-135.9 78.6-73.1 0-197-110.5-212.7-125.3v229.3c0 22.2 18 40.2 40.2 40.2h343.5c22.2 0 40.2-18 40.2-40.2V424.8c-7.3 8.4-37.8 42.6-75.3 76.3z" style="fill:#fff"/>
</svg>

<svg width="1024" height="1024" viewBox="0 0 1024 1024" fill="none" xmlns="http://www.w3.org/2000/svg">
<g clip-path="url(#clip0_2_3558)">
<path d="M512 1024C794.77 1024 1024 794.77 1024 512C1024 229.23 794.77 0 512 0C229.23 0 0 229.23 0 512C0 794.77 229.23 1024 512 1024Z" fill="#728DBE"/>
<path d="M724 374.9V340.2C724 318 706 300 683.8 300H340.2C318 300 300 318 300 340.2V374C315.7 389.3 462.3 528 512.7 528C566.3 528 707.4 391.1 724 374.9ZM648.6 501.1C590.8 553.3 545 579.7 512.7 579.7C439.6 579.7 315.7 469.2 300 454.4V683.7C300 705.9 318 723.9 340.2 723.9H683.7C705.9 723.9 723.9 705.9 723.9 683.7V424.8C716.6 433.2 686.1 467.4 648.6 501.1Z" fill="white"/>
</g>
<defs>
<clipPath id="clip0_2_3558">
<rect width="1024" height="1024" fill="white"/>
</clipPath>
</defs>
</svg>
